assets/icons/24px/stroke/pencil-24px.svg

<svg width="24" height="24" viewBox="0 0 24 24" fill="none" xmlns="http://www.w3.org/2000/svg">
<path fill-rule="evenodd" clip-rule="evenodd" d="M20.5475 3.36933C20.5671 3.38891 20.5869 3.4087 20.6068 3.42867C20.6268 3.44864 20.6466 3.4684 20.6662 3.48795C20.9356 3.75693 21.1676 3.98856 21.3335 4.23683C22.0076 5.24573 22.0076 6.56136 21.3335 7.57026C21.1676 7.81853 20.9356 8.05015 20.6662 8.31913C20.6466 8.33869 20.6268 8.35845 20.6068 8.37842L9.77323 19.212C9.7583 19.2269 9.7435 19.2418 9.72882 19.2565C9.50797 19.4776 9.31271 19.6732 9.08041 19.8321C8.84812 19.991 8.59511 20.1021 8.30893 20.2278C8.2899 20.2361 8.27072 20.2446 8.25139 20.2531L7.26056 20.689C6.32847 21.0992 5.5314 21.45 4.90701 21.6271C4.31784 21.7943 3.42622 21.9442 2.75877 21.2767C2.09132 20.6093 2.24122 19.7177 2.40838 19.1285C2.58552 18.5041 2.93629 17.707 3.34647 16.775L3.78244 15.7841C3.79095 15.7648 3.79937 15.7456 3.80773 15.7266C3.9334 15.4404 4.0445 15.1874 4.20341 14.9551C4.36232 14.7228 4.55785 14.5275 4.77902 14.3067C4.79373 14.292 4.80855 14.2772 4.82348 14.2623L15.6571 3.42867C15.6771 3.4087 15.6968 3.38891 15.7164 3.36933C15.9853 3.09992 16.217 2.86792 16.4652 2.70203C17.4741 2.02791 18.7898 2.02791 19.7987 2.70203C20.0469 2.86792 20.2786 3.09992 20.5475 3.36933ZM19.1926 4.84288C18.8302 4.48043 18.7488 4.40589 18.6875 4.36497C18.3512 4.14026 17.9127 4.14026 17.5764 4.36497C17.5151 4.40589 17.4338 4.48043 17.0713 4.84289L6.2377 15.6765C5.94808 15.9661 5.89467 16.025 5.85413 16.0843C5.8136 16.1436 5.77803 16.2147 5.61307 16.5896L5.2086 17.5089C4.7582 18.5325 4.46689 19.2005 4.33244 19.6744C4.32856 19.6881 4.32489 19.7013 4.32144 19.7141C4.33421 19.7106 4.34745 19.7069 4.36114 19.7031C4.83503 19.5686 5.50301 19.2773 6.52665 18.8269L7.44591 18.4224C7.82081 18.2575 7.89195 18.2219 7.95121 18.1814C8.01046 18.1408 8.0694 18.0874 8.35902 17.7978L19.1926 6.96421C19.5551 6.60175 19.6296 6.52036 19.6705 6.45912C19.8952 6.12282 19.8952 5.68427 19.6705 5.34797C19.6296 5.28673 19.5551 5.20534 19.1926 4.84288ZM4.00113 19.7696C4.00141 19.7693 4.00578 19.7693 4.01339 19.7706C4.00465 19.7705 4.00085 19.7699 4.00113 19.7696ZM4.2649 20.0221C4.26616 20.0297 4.2662 20.0341 4.26591 20.0344C4.26562 20.0347 4.26499 20.0309 4.2649 20.0221Z" fill="white"/>
<path fill-rule="evenodd" clip-rule="evenodd" d="M16.4498 11.0858L12.9142 7.55026L14.3284 6.13605L17.864 9.67158L16.4498 11.0858Z" fill="white"/>
</svg>

<svg width="24" height="24" fill="none" xmlns="http://www.w3.org/2000/svg"><path fill-rule="evenodd" clip-rule="evenodd" d="M20.547 3.37a36.957 36.957 0 0 1 .12.118c.269.269.5.5.666.749a3 3 0 0 1 0 3.333c-.165.249-.397.48-.667.75l-.06.058L9.774 19.212l-.044.044c-.221.222-.416.417-.649.576-.232.159-.485.27-.771.396l-.058.025-.99.436c-.933.41-1.73.761-2.354.938-.59.167-1.48.317-2.148-.35-.668-.668-.518-1.56-.35-2.149.177-.624.527-1.421.937-2.353l.436-.99.026-.058c.125-.287.237-.54.395-.772.16-.232.355-.428.576-.648l.044-.045L15.657 3.43l.06-.06c.268-.27.5-.501.748-.667a3 3 0 0 1 3.334 0c.248.166.48.398.748.667zm-1.354 1.473c-.363-.363-.444-.437-.506-.478a1 1 0 0 0-1.11 0c-.062.04-.143.115-.506.478L6.238 15.677c-.29.29-.343.348-.384.407-.04.06-.076.13-.24.506l-.405.919c-.45 1.023-.742 1.692-.877 2.165a3.249 3.249 0 0 0-.01.04l.04-.01c.473-.135 1.141-.427 2.165-.877l.919-.405c.375-.165.446-.2.505-.24.06-.041.118-.095.408-.384L19.193 6.964c.362-.362.437-.444.477-.505a1 1 0 0 0 0-1.111c-.04-.061-.115-.143-.477-.505zM4 19.77h.012-.012zm.264.252a.043.043 0 0 1 0 .012v-.012z" fill="#fff"/><path fill-rule="evenodd" clip-rule="evenodd" d="M16.45 11.086L12.914 7.55l1.414-1.414 3.536 3.536-1.414 1.414z" fill="#fff"/></svg>
